flags/pk-sd.svg

<svg width="512" height="512" viewBox="0 0 512 512" fill="none" xmlns="http://www.w3.org/2000/svg">
<rect width="512" height="512" fill="var(--flag-palette-dark-green, #496e2d)"/>
<path fill-rule="evenodd" clip-rule="evenodd" d="M291.6 117.8H262.6L254.1 95.5996L246.5 117.8H220.3L241.5 132.4L233.2 156.4L255.2 141.8H255.3L277.6 156.5L268.6 133.1L291.6 117.8ZM316.2 160.5C316.1 156.3 317.2 151.1 319.2 146.7C331.4 155.7 332.1 165.9 328.7 180.3C331 181.2 337.3 184 338.7 187C339.1 182.8 341 177.8 343.6 173.8C352.9 183 355.3 197.8 347.6 209.8C350.1 211.1 354.8 218.7 354.4 219.7C356.727 215.55 359.977 211.991 363.9 209.3C366.553 215.528 367.029 222.469 365.25 229.001C363.472 235.533 359.544 241.275 354.1 245.3C355.096 249.17 355.765 253.117 356.1 257.1C359.4 254.6 364.3 252.5 369.1 251.6C368.7 266.2 360.7 274.4 346.5 278.8C346.4 279.9 344.8 288.4 343.9 289.6C347.9 288.5 353.2 288.5 358 289.5C353.7 301.8 341.2 307.6 327.7 306.1C326.843 309.09 325.454 311.902 323.6 314.4C328.363 314.167 333.117 315.022 337.5 316.9C329.8 328.4 316.1 333.4 303.5 327.1C301.955 329.96 299.886 332.505 297.4 334.6C301.6 335.2 306.4 337.4 310.4 340.2C300.6 348.7 287.6 348.7 274 342.2L267.6 345.8L262.9 343.6L272.6 339.6C270.3 326.1 276.3 315.2 289.8 308.7C290.789 313.981 290.376 319.429 288.6 324.5C292 323 295.7 322.3 299.5 322.3C296.5 313.3 300.7 298.3 310.2 290.9C312.419 295.782 313.315 301.162 312.8 306.5C315.489 304.468 318.545 302.974 321.8 302.1C315.3 291.5 317.6 279.3 326.3 269.1C329.361 273.477 331.223 278.58 331.7 283.9C332.96 282.252 339.481 276.753 340.882 277.417C330.48 270.107 327.816 257.851 332 244.9C336.533 247.792 340.223 251.827 342.7 256.6C343 255.5 347.2 246.7 350.8 245.2C339.7 240.6 331.3 234.6 327.4 218.6C332.716 219.322 337.75 221.426 342 224.7C341.456 220.234 342.256 215.707 344.3 211.7C331.2 214.5 320.1 208.6 313.3 196C318.502 194.714 323.95 194.818 329.1 196.3C327.173 192.423 326.245 188.126 326.4 183.8C312.8 187.8 302 186 292.4 173C296.9 171.3 302.1 170.3 308.1 171C305.3 167 303.5 160.8 303.4 155C305.8 155.5 313.6 159 316.2 160.5ZM195.8 160.5C195.9 156.3 194.8 151.1 192.8 146.7C180.6 155.7 179.9 165.9 183.3 180.3C181.1 181.2 174.7 184 173.3 187C172.9 182.8 171 177.8 168.4 173.8C163.697 178.426 160.732 184.532 160.003 191.089C159.275 197.646 160.827 204.253 164.4 209.8C161.9 211.1 157.2 218.7 157.6 219.7C155.273 215.55 152.023 211.991 148.1 209.3C145.447 215.528 144.971 222.469 146.749 229.001C148.528 235.533 152.456 241.275 157.9 245.3C157.3 246.9 156.1 254.4 155.9 257.1C152.6 254.6 147.7 252.5 142.9 251.6C143.3 266.2 151.3 274.4 165.5 278.8C165.6 279.9 167.2 288.4 168.1 289.6C164.1 288.5 158.8 288.5 154 289.5C158.3 301.8 170.8 307.6 184.3 306.1C185.157 309.09 186.546 311.902 188.4 314.4C184.2 314 179 314.9 174.5 316.9C182.2 328.4 195.9 333.4 208.5 327.1C210.045 329.96 212.114 332.505 214.6 334.6C210.4 335.2 205.6 337.4 201.6 340.2C211.4 348.7 224.4 348.7 238 342.2L244.4 345.8L249.1 343.6L239.4 339.6C241.7 326.1 235.7 315.2 222.2 308.7C221.206 313.98 221.62 319.43 223.4 324.5C220 323 216.3 322.3 212.5 322.3C215.5 313.3 211.3 298.3 201.8 290.9C199.581 295.782 198.685 301.162 199.2 306.5C196.511 304.468 193.455 302.974 190.2 302.1C196.7 291.5 194.4 279.3 185.7 269.1C182.639 273.477 180.777 278.58 180.3 283.9C179.04 282.252 172.519 276.753 171.118 277.417C181.52 270.107 184.184 257.851 180 244.9C175.467 247.792 171.777 251.827 169.3 256.6C169 255.5 164.8 246.7 161.2 245.2C172.3 240.6 180.7 234.6 184.6 218.6C179.284 219.322 174.25 221.426 170 224.7C170.544 220.234 169.743 215.707 167.7 211.7C180.8 214.5 191.9 208.6 198.7 196C193.498 194.714 188.049 194.818 182.9 196.3C184.827 192.423 185.755 188.126 185.6 183.8C199.2 187.8 210 186 219.6 173C215.1 171.3 209.9 170.3 203.9 171C206.7 167 208.5 160.8 208.6 155C206.3 155.5 198.4 159 195.8 160.5ZM256.8 149.6H255.2C254.9 158.1 250.5 164.6 243.9 170.5C239.038 174.846 232.983 178.812 226.653 182.958L226.653 182.958C224.39 184.441 222.091 185.946 219.8 187.5C210.635 193.29 202.52 200.594 195.8 209.1C188.436 219.065 184.633 231.215 185 243.6C185 258 189.5 268.9 196.1 277.6C202.949 285.975 211.124 293.17 220.3 298.9C222.46 300.373 224.615 301.798 226.732 303.198L226.733 303.199C233.239 307.502 239.396 311.573 244.3 316.1C249.018 320.065 252.49 325.309 254.3 331.2C254.7 333.3 255.1 335.4 255.3 337.7H256.8C256.9 335.4 257.3 333.3 257.7 331.3C259.492 325.372 262.966 320.092 267.7 316.1C272.604 311.573 278.76 307.502 285.267 303.199C287.384 301.798 289.539 300.373 291.7 298.9C300.868 293.2 309.043 286.039 315.9 277.7C322.5 268.9 326.9 258 326.9 243.7C327.31 231.294 323.542 219.109 316.2 209.1C309.468 200.632 301.354 193.363 292.2 187.6C289.91 186.038 287.626 184.531 285.385 183.052L285.384 183.051C279.014 178.846 272.982 174.864 268.1 170.5C261.5 164.5 257.1 158.1 256.8 149.5V149.6ZM378 249C378 310.304 323.379 360 256 360C188.621 360 134 310.304 134 249C134 233.211 137.623 218.192 144.155 204.594C126.48 226.69 116 254.191 116 284C116 356.902 178.68 416 256 416C333.32 416 396 356.902 396 284C396 254.191 385.52 226.69 367.845 204.594C374.377 218.192 378 233.211 378 249Z" fill="var(--flag-palette-white, #eeeeee)"/>
</svg>

<svg xmlns="http://www.w3.org/2000/svg" width="512" height="512" fill="none"><path fill="var(--flag-palette-dark-green, #496e2d)" d="M0 0h512v512H0z"/><path fill="var(--flag-palette-white, #eeeeee)" fill-rule="evenodd" d="M291.6 117.8h-29l-8.5-22.2-7.6 22.2h-26.2l21.2 14.6-8.3 24 22-14.6h.1l22.3 14.7-9-23.4zm24.6 42.7c-.1-4.2 1-9.4 3-13.8 12.2 9 12.9 19.2 9.5 33.6 2.3.9 8.6 3.7 10 6.7.4-4.2 2.3-9.2 4.9-13.2 9.3 9.2 11.7 24 4 36 2.5 1.3 7.2 8.9 6.8 9.9a31 31 0 0 1 9.5-10.4 30 30 0 0 1-9.8 36q1.5 5.8 2 11.8c3.3-2.5 8.2-4.6 13-5.5-.4 14.6-8.4 22.8-22.6 27.2-.1 1.1-1.7 9.6-2.6 10.8 4-1.1 9.3-1.1 14.1-.1-4.3 12.3-16.8 18.1-30.3 16.6q-1.3 4.5-4.1 8.3 7.3-.3 13.9 2.5c-7.7 11.5-21.4 16.5-34 10.2a26 26 0 0 1-6.1 7.5c4.2.6 9 2.8 13 5.6-9.8 8.5-22.8 8.5-36.4 2l-6.4 3.6-4.7-2.2 9.7-4c-2.3-13.5 3.7-24.4 17.2-30.9q1.5 8-1.2 15.8 5.1-2.2 10.9-2.2c-3-9 1.2-24 10.7-31.4a31 31 0 0 1 2.6 15.6q4-3 9-4.4c-6.5-10.6-4.2-22.8 4.5-33q4.7 6.7 5.4 14.8c1.3-1.6 7.8-7.1 9.2-6.5-10.4-7.3-13-19.5-8.9-32.5q6.8 4.5 10.7 11.7c.3-1.1 4.5-9.9 8.1-11.4-11.1-4.6-19.5-10.6-23.4-26.6q8.1 1.1 14.6 6.1-.7-6.9 2.3-13c-13.1 2.8-24.2-3.1-31-15.7a31 31 0 0 1 15.8.3 26 26 0 0 1-2.7-12.5c-13.6 4-24.4 2.2-34-10.8 4.5-1.7 9.7-2.7 15.7-2-2.8-4-4.6-10.2-4.7-16 2.4.5 10.2 4 12.8 5.5m-120.4 0c.1-4.2-1-9.4-3-13.8-12.2 9-12.9 19.2-9.5 33.6-2.2.9-8.6 3.7-10 6.7-.4-4.2-2.3-9.2-4.9-13.2a29 29 0 0 0-4 36c-2.5 1.3-7.2 8.9-6.8 9.9a31 31 0 0 0-9.5-10.4 30 30 0 0 0 9.8 36c-.6 1.6-1.8 9.1-2 11.8a33 33 0 0 0-13-5.5c.4 14.6 8.4 22.8 22.6 27.2.1 1.1 1.7 9.6 2.6 10.8-4-1.1-9.3-1.1-14.1-.1 4.3 12.3 16.8 18.1 30.3 16.6q1.3 4.5 4.1 8.3c-4.2-.4-9.4.5-13.9 2.5 7.7 11.5 21.4 16.5 34 10.2a26 26 0 0 0 6.1 7.5c-4.2.6-9 2.8-13 5.6 9.8 8.5 22.8 8.5 36.4 2l6.4 3.6 4.7-2.2-9.7-4c2.3-13.5-3.7-24.4-17.2-30.9q-1.5 8 1.2 15.8a27 27 0 0 0-10.9-2.2c3-9-1.2-24-10.7-31.4a31 31 0 0 0-2.6 15.6q-4-3-9-4.4c6.5-10.6 4.2-22.8-4.5-33q-4.7 6.7-5.4 14.8c-1.3-1.6-7.8-7.1-9.2-6.5 10.4-7.3 13-19.5 8.9-32.5q-6.8 4.5-10.7 11.7c-.3-1.1-4.5-9.9-8.1-11.4 11.1-4.6 19.5-10.6 23.4-26.6q-8 1.1-14.6 6.1.7-6.9-2.3-13c13.1 2.8 24.2-3.1 31-15.7a31 31 0 0 0-15.8.3 26 26 0 0 0 2.7-12.5c13.6 4 24.4 2.2 34-10.8a33 33 0 0 0-15.7-2c2.8-4 4.6-10.2 4.7-16-2.3.5-10.2 4-12.8 5.5m61-10.9h-1.6c-.3 8.5-4.7 15-11.3 20.9-4.9 4.3-11 8.3-17.2 12.5l-6.9 4.5a96 96 0 0 0-24 21.6 55 55 0 0 0-10.8 34.5c0 14.4 4.5 25.3 11.1 34a99 99 0 0 0 24.2 21.3l6.4 4.3c6.5 4.3 12.7 8.4 17.6 12.9a32 32 0 0 1 10 15.1q.7 3.1 1 6.5h1.5q.2-3.4.9-6.4a32 32 0 0 1 10-15.2q7.5-6.6 17.6-12.9l6.4-4.3a99 99 0 0 0 24.2-21.2c6.6-8.8 11-19.7 11-34a55 55 0 0 0-10.7-34.6 96 96 0 0 0-24-21.5l-6.8-4.5c-6.4-4.3-12.4-8.2-17.3-12.6-6.6-6-11-12.4-11.3-21zM378 249c0 61.3-54.6 111-122 111s-122-49.7-122-111q.1-23.9 10.2-44.4A127 127 0 0 0 116 284c0 72.9 62.7 132 140 132s140-59.1 140-132c0-29.8-10.5-57.3-28.2-79.4A102 102 0 0 1 378 249" clip-rule="evenodd"/></svg>
